packages/core/src/svgs/tokens/mono/SBTC.svg

<svg width="24" height="24" viewBox="0 0 24 24" fill="none" xmlns="http://www.w3.org/2000/svg">
<path d="M12.0001 22C17.5231 22 22 17.5231 22 11.9999C22 10.1788 21.5125 8.47062 20.6626 6.99999H15.7512C16.5277 7.58156 17.1579 8.33619 17.5916 9.20394C18.0255 10.0717 18.2508 11.0287 18.25 11.9988C18.25 15.4468 15.4569 18.2425 12.01 18.2474L12.0144 18.25H4.19314C5.12918 19.4212 6.3171 20.3667 7.66863 21.0159C9.02019 21.665 10.5006 22.0015 12.0001 22ZM3.33751 17C2.45857 15.4804 1.99714 13.7555 2.00001 11.9999C2.00001 6.47688 6.47689 2 12.0001 2C13.4992 1.99865 14.9796 2.33507 16.331 2.98428C17.6825 3.63348 18.8703 4.57879 19.8062 5.75H12.0001C8.54812 5.75 5.75001 8.5475 5.75001 11.9988C5.74922 12.9696 5.97504 13.9273 6.40948 14.7954C6.84392 15.6637 7.475 16.4185 8.25251 17H3.33751Z" fill="white"/>
<path d="M13.0794 10.75H10.75V11.375H13.0794C13.1357 11.3568 13.25 11.2712 13.25 11.0732C13.25 10.875 13.1363 10.7749 13.0794 10.75Z" fill="white"/>
<path d="M13.0794 12.625H10.75V13.25H13.0794C13.1357 13.232 13.25 13.1462 13.25 12.9482C13.25 12.75 13.1363 12.6501 13.0794 12.625Z" fill="white"/>
<path fill-rule="evenodd" clip-rule="evenodd" d="M17 11.9996C17 14.761 14.7614 16.9997 12 16.9997C9.23858 16.9997 7 14.761 7 11.9996C7 9.23822 9.23858 6.99963 12 6.99963C14.7614 6.99963 17 9.23822 17 11.9996ZM9.50013 14.4997V9.49977H13.1226C14.0039 9.49977 14.4994 10.331 14.4994 10.9953C14.4994 11.5273 14.27 11.8642 14.1557 11.9654C14.4308 12.2422 14.4994 12.7453 14.4994 12.9623C14.522 13.9153 13.7144 14.4997 13.2739 14.4997H9.50013Z" fill="white"/>
</svg>

<svg xmlns="http://www.w3.org/2000/svg" width="24" height="24" fill="none" viewBox="0 0 24 24">
    <path fill="#fff" d="M12 22c5.523 0 10-4.477 10-10 0-1.821-.488-3.53-1.337-5H15.75a6.24 6.24 0 0 1 2.499 4.999 6.25 6.25 0 0 1-6.24 6.248l.004.003h-7.82A9.98 9.98 0 0 0 12 22m-8.662-5A9.95 9.95 0 0 1 2 12C2 6.477 6.477 2 12 2a9.98 9.98 0 0 1 7.806 3.75H12A6.25 6.25 0 0 0 8.253 17z"/>
    <path fill="#fff" d="M13.08 10.75h-2.33v.625h2.33c.056-.018.17-.104.17-.302s-.114-.298-.17-.323m0 1.875h-2.33v.625h2.33c.056-.018.17-.104.17-.302s-.114-.298-.17-.323"/>
    <path fill="#fff" fill-rule="evenodd" d="M17 12a5 5 0 1 1-10 0 5 5 0 0 1 10 0m-7.5 2.5v-5h3.623c.88 0 1.376.831 1.376 1.495 0 .532-.229.87-.343.97.275.277.343.78.343.997.023.953-.785 1.538-1.225 1.538z" clip-rule="evenodd"/>
</svg>
